Papirus/16x16/apps/suanPan.svg

<svg xmlns="http://www.w3.org/2000/svg" width="16" height="16" version="1.1">
 <rect style="fill:#546d78" width="16" height="16" x="0" y="0" rx="3.2" ry="3.2"/>
 <path style="fill:#f84042" d="m 3.9496778,12.961797 c -0.3828864,0.164045 -0.9598604,-0.23518 -0.5197344,-0.533642 0.5470804,-0.381857 1.2974088,-0.25045 1.93543,-0.359244 0.506334,-0.01693 1.1450288,-0.02279 1.377622,-0.551665 0.2933932,-0.348968 0.7052288,-1.208091 -0.010012,-1.275607 -0.2918272,0.277286 -0.4924984,0.944656 -1.0492504,0.901677 -0.2935372,0.288353 -0.8604704,0.243827 -1.257538,0.441595 -0.4678132,0.300948 -0.424654,-0.538037 -0.014348,-0.616 0.4279644,-0.09158 0.7807532,-0.22253 1.1990412,-0.402662 C 6.0236246,10.450371 6.2020082,9.575815 5.5945202,9.8457442 5.3558454,10.221234 4.5148366,10.398923 4.6545818,9.8069302 4.831125,9.3033093 5.386057,9.0765561 5.6328594,8.653288 5.872573,8.3169749 6.2050154,8.0800192 6.349811,7.7202054 6.6550258,7.0860909 5.7741394,7.3223197 5.4230362,7.195918 5.0577766,7.2269537 4.3170826,6.6635495 4.2036886,7.1649216 4.494407,7.5490415 5.0453338,7.5688533 5.3775522,7.8917621 5.9502554,8.0313835 5.2357478,8.664563 4.943381,8.2016831 4.7381854,8.0447289 4.086237,7.8956946 4.2093934,8.3312984 4.2939124,8.6022362 4.2150034,8.8690451 3.8553094,8.7784169 3.4281814,8.6639619 3.3970974,8.0467756 3.270301,7.6657554 3.1764798,7.1614173 2.9813574,6.7234327 3.0014394,6.1839614 3.1513038,5.6751605 3.0800534,5.0220435 3.4764038,4.5885179 3.712533,4.113923 4.5730302,4.719245 4.2390194,5.095551 4.2670314,5.5502359 5.0191894,5.6199994 5.4252266,5.6453151 5.8629678,5.5782031 6.584905,6.4376292 5.784695,6.324341 5.5159094,6.406523 4.8583406,6.0883636 4.818235,6.329371 5.205239,6.5079206 5.5306818,6.6238017 5.9407626,6.7411048 6.2991402,6.9369048 6.8524182,7.0461033 6.8405826,6.4536631 7.0180938,6.0259425 6.8394626,5.5132916 6.5149918,5.2738609 5.979765,5.1425917 5.4949114,5.4711577 4.9680414,5.3188981 4.4292634,5.1217938 4.613219,4.2141605 4.6712834,3.8244816 4.8527922,3.3542514 5.3768386,3.2508082 5.849253,3.2018307 6.4466354,3.1272114 7.0500578,3.1463632 7.650599,3.1269796 8.016005,2.8704951 8.769245,3.4737938 8.1783054,3.7220795 7.3947574,3.7903345 6.5832362,3.6520252 5.8195578,3.8752584 c -0.4195816,0.079055 -0.5520196,0.9059559 0.056179,0.6631663 0.5407972,0.065725 1.0723836,-0.348366 1.602094,-0.089092 0.2666176,0.378781 0.044884,0.9339548 0.114974,1.3833597 -0.1303176,0.4791363 -0.2168188,1.0314619 -0.4389724,1.4682875 -0.0036,0.4101153 -0.3493616,0.7769142 -0.4998896,1.1874537 -0.438596,0.4704699 0.17369,0.8718991 0.6279904,0.9378083 0.6242192,0.05947 1.3065556,0.1893897 1.9039684,-0.01964 C 9.7589824,9.2894414 10.331137,9.078544 10.8799,8.9418179 c 0.338082,0.1852204 0.324728,0.8663103 -0.147498,0.9033093 -0.615476,0.2153458 0.227071,0.6653118 0.523652,0.7657888 0.476243,0.180891 1.120876,0.05865 1.483215,0.444648 -0.380159,0.182663 -0.753719,0.535165 -1.259756,0.28521 -0.549263,-0.04322 -1.091353,-0.21153 -1.520137,-0.552035 -0.05855,-0.331473 -0.722526,-0.9024008 -0.717492,-0.25901 0.1464996,0.443327 0.061776,1.031159 0.4819708,1.34656 0.8829812,0.316812 1.8396202,0.10296 2.7486582,0.248031 0.535076,-0.04957 0.734275,0.437375 0.259407,0.693235 -0.590823,0.06684 -1.17511,-0.141813 -1.778472,-0.07708 -0.553135,-0.01854 -1.0554484,-0.01756 -1.568092,-0.06886 -0.596018,0.09833 -1.1880456,-0.166089 -1.794902,-0.02322 -0.868686,0.06853 -1.7410964,0.04715 -2.6107088,0.09553 -0.3163484,0.142501 -0.6885016,0.180408 -1.0300712,0.217867 z m 4.1490696,-1.084325 c 0.3093812,-0.0091 0.768162,0.121346 0.5697808,-0.348433 -0.1623636,-0.38918 -0.055628,-1.132458 -0.6067888,-1.200728 -0.3521016,0.41281 -0.3875968,1.029116 -0.6451048,1.512692 0.2205376,0.07478 0.4553844,0.01595 0.6821128,0.03646 z M 12.475304,9.2845464 C 11.971376,9.3413418 12.111111,8.5750466 11.714085,8.380162 11.26069,8.332862 10.860124,8.627493 10.41266,8.6267387 10.006012,8.7260176 9.5392682,8.7583458 9.0615866,8.786274 8.552257,8.9079576 7.8769026,8.6582459 7.693625,8.2878249 8.2099542,8.0372881 8.822267,8.0561139 9.3832858,7.9616592 9.9692298,7.8943196 10.536832,7.8222461 11.095428,7.643724 11.567934,7.2361308 10.587503,7.3706647 10.351389,7.3656872 9.565935,7.3758229 8.7919406,7.5260554 8.005481,7.5284597 7.6416414,7.1010744 8.3814706,6.9346327 8.7028958,6.903322 9.294593,6.8189284 9.8784618,6.6673053 10.484732,6.7029767 10.938344,6.6896588 11.40607,6.7688784 11.850925,6.6731588 12.078181,6.1851164 11.182191,6.4722007 10.903556,6.4316382 10.297968,6.3919792 9.6842302,6.3471621 9.0793326,6.3976953 8.693989,6.445616 8.1848634,6.7712081 7.8635266,6.4602342 7.4383678,6.1492486 7.7735616,5.412948 8.3100758,5.6349241 8.7688762,5.717978 8.9997762,5.5372598 9.4439326,5.5652901 9.6282974,5.526358 9.9072866,5.6515144 10.019001,5.4866441 9.9228186,4.8440832 10.514547,4.5358947 11.008806,4.2791626 11.424067,3.8229377 10.452992,3.901293 10.190846,3.9748752 9.565411,3.890073 9.7117202,4.5958643 9.4226126,4.9041432 9.2252878,5.1210277 8.8848478,5.3297252 8.9929138,4.8761717 8.9766858,4.1356598 8.9604618,3.3951478 8.9442378,2.6546358 9.0529138,2.2649452 9.567963,1.6676494 9.9183226,2.2300909 10.199219,2.5545083 9.5146082,3.2487064 10.281437,3.1365968 c 0.458658,0.064126 0.901924,-0.14025 1.337745,-0.1296036 0.589796,0.085816 0.518198,0.6981895 0.379167,1.1154391 -0.0344,0.4294045 -0.22874,0.9819187 -0.786748,0.9465458 -0.589209,0.1285821 -0.207739,0.7232184 0.249588,0.6609899 0.447647,-0.06314 0.960555,-0.047076 1.03808,0.4856538 0.316283,0.5776845 -0.289205,1.2007401 -0.0667,1.763826 -0.02474,0.4427578 0.488507,0.7905855 0.405772,1.1984026 -0.0988,0.082056 -0.2368,0.1075682 -0.363042,0.1066921 z"/>
</svg>

<svg xmlns="http://www.w3.org/2000/svg" width="16" height="16" version="1.1">
 <rect style="fill:#455a64" width="16" height="16" x="0" y="0" rx="3.2" ry="3.2"/>
 <path style="fill:#ffeb3b" d="M 12.475,9.284 C 11.971,9.341 12.111,8.575 11.714,8.38 11.261,8.333 10.86,8.627 10.413,8.627 10.006,8.726 9.539,8.758 9.062,8.786 8.552,8.908 7.877,8.658 7.694,8.288 8.21,8.037 8.822,8.056 9.383,7.962 9.969,7.894 10.537,7.822 11.095,7.644 11.568,7.236 10.588,7.371 10.351,7.366 9.566,7.376 8.792,7.526 8.005,7.529 7.642,7.101 8.382,6.935 8.703,6.903 9.295,6.819 9.879,6.667 10.485,6.703 10.938,6.69 11.406,6.769 11.851,6.673 12.078,6.185 11.182,6.472 10.904,6.432 10.298,6.392 9.684,6.347 9.079,6.398 8.694,6.446 8.185,6.771 7.864,6.46 7.438,6.149 7.774,5.413 8.31,5.635 8.769,5.718 9,5.537 9.444,5.565 9.628,5.526 9.907,5.652 10.019,5.487 9.923,4.844 10.515,4.536 11.009,4.279 11.424,3.823 10.453,3.901 10.191,3.975 9.565,3.89 9.712,4.596 9.423,4.904 9.225,5.121 8.885,5.33 8.993,4.876 8.977,4.136 8.96,3.395 8.944,2.655 9.053,2.265 9.568,1.668 9.918,2.23 10.199,2.554 9.515,3.249 10.281,3.137 10.74,3.201 11.183,2.996 11.619,3.007 12.209,3.093 12.137,3.705 11.998,4.122 11.964,4.552 11.77,5.104 11.212,5.069 10.622,5.198 11.004,5.792 11.461,5.73 11.909,5.667 12.422,5.683 12.499,6.216 12.816,6.793 12.21,7.416 12.433,7.979 12.408,8.422 12.921,8.77 12.838,9.178 12.74,9.26 12.602,9.285 12.475,9.284 Z"/>
 <path style="fill:#2196f3" d="M 3.95,12.962 C 3.567,13.126 2.99,12.727 3.43,12.428 3.977,12.046 4.727,12.178 5.365,12.069 5.872,12.052 6.51,12.046 6.743,11.517 7.036,11.168 7.448,10.309 6.733,10.242 6.441,10.519 6.24,11.186 5.684,11.143 5.39,11.432 4.823,11.387 4.426,11.585 3.958,11.886 4.002,11.047 4.412,10.969 4.84,10.877 5.193,10.746 5.611,10.566 6.024,10.45 6.202,9.576 5.595,9.846 5.356,10.221 4.515,10.399 4.655,9.807 4.831,9.303 5.386,9.077 5.633,8.653 5.873,8.317 6.205,8.08 6.35,7.72 6.655,7.086 5.774,7.322 5.423,7.196 5.058,7.227 4.317,6.663 4.204,7.165 4.494,7.549 5.045,7.569 5.378,7.892 5.95,8.031 5.236,8.665 4.943,8.202 4.738,8.045 4.086,7.896 4.209,8.331 4.294,8.602 4.215,8.869 3.855,8.778 3.428,8.664 3.397,8.047 3.27,7.666 3.176,7.161 2.981,6.723 3.001,6.184 3.151,5.675 3.08,5.022 3.476,4.588 3.712,4.114 4.573,4.719 4.239,5.096 4.267,5.55 5.019,5.62 5.425,5.645 5.863,5.578 6.585,6.438 5.785,6.324 5.516,6.407 4.858,6.088 4.818,6.329 5.205,6.508 5.531,6.624 5.941,6.741 6.299,6.937 6.852,7.046 6.841,6.454 7.018,6.026 6.84,5.513 6.515,5.274 5.98,5.143 5.495,5.471 4.968,5.319 4.429,5.122 4.613,4.214 4.671,3.825 4.853,3.354 5.377,3.251 5.849,3.202 6.447,3.127 7.05,3.146 7.651,3.127 8.016,2.87 8.769,3.474 8.178,3.722 7.395,3.79 6.583,3.652 5.82,3.875 5.4,3.954 5.268,4.781 5.876,4.538 6.417,4.604 6.948,4.19 7.478,4.449 7.744,4.828 7.523,5.383 7.593,5.833 7.463,6.312 7.376,6.864 7.154,7.301 7.15,7.711 6.804,8.078 6.654,8.488 6.215,8.959 6.828,9.36 7.282,9.426 7.906,9.486 8.588,9.616 9.186,9.407 9.759,9.289 10.331,9.079 10.88,8.942 11.218,9.127 11.205,9.808 10.732,9.845 10.117,10.06 10.959,10.51 11.256,10.611 11.732,10.792 12.377,10.67 12.739,11.056 12.359,11.238 11.986,11.591 11.48,11.341 10.93,11.298 10.388,11.129 9.959,10.789 9.901,10.457 9.237,9.886 9.242,10.53 9.388,10.973 9.304,11.561 9.724,11.876 10.607,12.193 11.563,11.979 12.473,12.124 13.008,12.075 13.207,12.562 12.732,12.818 12.141,12.884 11.557,12.676 10.953,12.74 10.4,12.722 9.898,12.723 9.385,12.672 8.789,12.77 8.197,12.506 7.59,12.648 6.722,12.717 5.849,12.696 4.98,12.744 4.663,12.886 4.291,12.924 3.95,12.962 Z M 8.099,11.877 C 8.408,11.868 8.867,11.999 8.668,11.529 8.506,11.14 8.613,10.397 8.062,10.328 7.71,10.741 7.674,11.357 7.417,11.841 7.637,11.916 7.872,11.857 8.099,11.877 Z"/>
</svg>
